X: 4045
T: Blarney Pilgrim, The
R: jig
M: 6/8
K: Dmixolydian
|:"D"CDD DEG|ADD ABc|"G"{/c} BAG AGE|"Am7" GEA GED|
"D" CDD DEG|(3G.A.A ABc|"Am7" {/c} BAG AGE|1 "D" GED D2 C:|2 "D" GED D2 B||
|:"G"ded {/e}dBG|"Am7" AGA BGE|"G"ded {/e} dBG|"D"AGF G (3 ABd|
"G"gfe dBG|"Am7" A2 G BGE|"C"B2G {/B}AGE|1 "D"GED D2 B:|2 "D" GED D (3EFG||
|:"D"A2D "G"B2D|"D"A2D ABc|"G"{/c}BAG AGE|"Am7"GEA GED|
"D"ADD "G"(3BAG|"D"ADD ABc|"Am7" {/c}BAG AGE|"D" GED D3:|

